dist/files/common/section-icon-how-it-works.svg

<svg width="96" height="96" viewBox="0 0 96 96" fill="none" xmlns="http://www.w3.org/2000/svg">
<g clip-path="url(#clip0_9_463)">
<path fill-rule="evenodd" clip-rule="evenodd" d="M39.432 59.0401C49.712 62.6001 63.92 59.0401 69.164 47.3561C70.7553 43.6366 71.3216 39.5589 70.8042 35.5466C70.2868 31.5343 68.7044 27.7337 66.2215 24.5396C63.7386 21.3456 60.4458 18.8747 56.6851 17.3835C52.9244 15.8924 48.833 15.4354 44.836 16.0601C40.0253 16.8124 35.5854 19.0955 32.175 22.5708C28.7647 26.046 26.5655 30.5281 25.904 35.3521C25.144 41.5521 26.904 50.4361 32.504 54.0801C32.7692 54.2356 33.0836 54.2845 33.3835 54.2169C33.6834 54.1493 33.9464 53.9703 34.1193 53.7161C34.2922 53.4619 34.362 53.1514 34.3146 52.8477C34.2672 52.5439 34.1061 52.2695 33.864 52.0801C29.344 48.9201 28.224 41.0721 29.144 35.7921C29.6304 33.2113 30.6474 30.7596 32.1307 28.5924C33.614 26.4251 35.5311 24.5895 37.7607 23.2017C39.9904 21.814 42.4839 20.9044 45.0834 20.5305C47.6828 20.1566 50.3316 20.3266 52.862 21.0297C55.3923 21.7328 57.7491 22.9537 59.7831 24.6151C61.817 26.2764 63.4838 28.3421 64.6778 30.6812C65.8719 33.0202 66.5672 35.5818 66.7197 38.2036C66.8723 40.8254 66.4787 43.4503 65.564 45.9121C61.564 55.8801 49.156 59.3601 40.272 56.6001C39.9865 56.5972 39.7074 56.6843 39.4742 56.8489C39.2409 57.0135 39.0654 57.2474 38.9725 57.5173C38.8796 57.7872 38.8739 58.0795 38.9564 58.3528C39.0389 58.6261 39.2052 58.8666 39.432 59.0401Z" fill="#FFE1CD"/>
<path fill-rule="evenodd" clip-rule="evenodd" d="M94.5758 23.264C94.0558 18.864 94.2958 10.18 90.8958 7.77603C83.2478 2.33603 66.6398 3.81603 55.6398 3.41603C41.5918 2.93603 27.0638 4.05603 13.1398 4.41603C12.9444 4.38215 12.744 4.39139 12.5526 4.44311C12.3612 4.49484 12.1835 4.58778 12.0318 4.71544C11.8801 4.8431 11.7581 5.00238 11.6744 5.18214C11.5908 5.36189 11.5474 5.55776 11.5474 5.75603C11.5474 5.95429 11.5908 6.15017 11.6744 6.32992C11.7581 6.50967 11.8801 6.66895 12.0318 6.79661C12.1835 6.92427 12.3612 7.01722 12.5526 7.06894C12.744 7.12066 12.9444 7.1299 13.1398 7.09603C27.0238 6.89603 41.3918 6.05603 55.4798 6.77603C65.3998 7.29603 82.1718 6.25603 88.5318 10.776C90.0518 11.936 90.0918 20.544 90.4118 23.584C91.76 34.3421 91.854 45.2203 90.6918 56C90.5038 59.576 89.9118 63.12 88.9318 66.564C79.1318 71.684 9.9358 75.288 5.8918 68.804C4.36729 63.3939 3.50762 57.8181 3.3318 52.2C2.8184 37.6959 3.62169 23.175 5.7318 8.81603C5.84736 8.70046 5.93903 8.56327 6.00157 8.41228C6.06412 8.26129 6.09631 8.09946 6.09631 7.93603C6.09631 7.77259 6.06412 7.61076 6.00157 7.45977C5.93903 7.30878 5.84736 7.17159 5.7318 7.05603C5.61623 6.94046 5.47904 6.84879 5.32805 6.78625C5.17706 6.72371 5.01523 6.69152 4.8518 6.69152C4.68837 6.69152 4.52654 6.72371 4.37555 6.78625C4.22455 6.84879 4.08736 6.94046 3.9718 7.05603C2.4118 8.61603 2.7318 13.62 2.4518 15.34C0.18171 28.7935 -0.51631 42.4653 0.371798 56.08C0.563798 61.072 1.3838 66.02 2.8118 70.808C6.1718 76.448 28.0638 76.648 34.8278 76.688C32.1742 80.101 30.9032 84.3882 31.2678 88.696C28.1878 88.696 25.3038 89.096 22.6238 89.336C22.4507 89.304 22.2726 89.3105 22.1023 89.355C21.9319 89.3995 21.7734 89.481 21.6381 89.5936C21.5028 89.7062 21.3938 89.8472 21.3191 90.0066C21.2444 90.166 21.2056 90.34 21.2056 90.516C21.2056 90.6921 21.2444 90.866 21.3191 91.0254C21.3938 91.1848 21.5028 91.3259 21.6381 91.4385C21.7734 91.5511 21.9319 91.6325 22.1023 91.677C22.2726 91.7215 22.4507 91.728 22.6238 91.696C30.6238 91.976 36.7878 92.776 46.6358 92.696C56.4758 92.616 62.9198 91.776 70.9238 91.176C71.2395 91.1213 71.5257 90.9568 71.732 90.7117C71.9383 90.4665 72.0514 90.1564 72.0514 89.836C72.0514 89.5156 71.9383 89.2055 71.732 88.9604C71.5257 88.7152 71.2395 88.5508 70.9238 88.496H63.5638C63.0379 84.0781 61.6793 79.7999 59.5598 75.888C64.8398 75.488 89.7718 73.768 92.7358 69.368C94.3702 65.3485 95.2384 61.0588 95.2958 56.72C96.434 45.5809 96.1921 34.3439 94.5758 23.264ZM60.4798 88.496C49.5158 88.256 43.7118 88.136 34.2678 88.496C34.9078 86.936 35.8278 84.896 36.3078 83.336C36.8865 81.1654 37.2865 78.9627 37.5078 76.728C37.5078 76.208 36.5478 77.168 56.2398 75.968C56.6008 80.4293 58.0572 84.7325 60.4798 88.496Z" fill="#FFE1CD"/>
<path fill-rule="evenodd" clip-rule="evenodd" d="M55.52 34.5481C55.7172 33.4537 55.6466 32.3278 55.3141 31.2666C54.9816 30.2055 54.3971 29.2406 53.6105 28.4545C52.824 27.6683 51.8589 27.0843 50.7975 26.7523C49.7362 26.4204 48.6103 26.3503 47.516 26.5481C40.552 27.4681 39.232 36.3081 43.516 35.7881C43.8183 35.8517 44.1336 35.7927 44.3924 35.6239C44.6512 35.4551 44.8323 35.1904 44.896 34.8881C44.9596 34.5857 44.9006 34.2705 44.7318 34.0117C44.563 33.7529 44.2983 33.5717 43.996 33.5081C43.9831 33.1921 44.041 32.8772 44.1656 32.5865C44.2902 32.2958 44.4782 32.0367 44.716 31.8281C45.0901 31.4284 45.5423 31.1099 46.0446 30.8921C46.5469 30.6743 47.0885 30.5619 47.636 30.5619C48.1834 30.5619 48.7251 30.6743 49.2273 30.8921C49.7296 31.1099 50.1818 31.4284 50.556 31.8281C52.036 33.4281 50.556 35.3881 48.756 37.6681C48.196 38.3481 45.796 40.3521 45.996 41.8721C46.276 44.3521 49.996 43.9521 49.556 41.8721C50.276 41.4321 51.036 40.1521 51.316 39.9121C53.1358 38.4983 54.5784 36.6572 55.516 34.5521M47.752 45.5161C44.272 45.2361 42.912 51.9161 48.032 51.5561C48.872 51.5561 50.152 51.2361 50.672 50.1161C50.8766 49.7542 51.0004 49.3523 51.0349 48.938C51.0694 48.5237 51.0138 48.1069 50.872 47.7161C50.5765 47.1184 50.1363 46.6041 49.5914 46.2198C49.0465 45.8356 48.4142 45.5937 47.752 45.5161Z" fill="#FFE1CD"/>
</g>
<defs>
<clipPath id="clip0_9_463">
<rect width="96" height="96" fill="white"/>
</clipPath>
</defs>
</svg>

<svg xmlns="http://www.w3.org/2000/svg" fill="none" viewBox="0 0 96 96"><g fill="#ffe1cd" fill-rule="evenodd" clip-path="url(#a)" clip-rule="evenodd"><path d="M39.432 59.04c10.28 3.56 24.488 0 29.732-11.684A22.657 22.657 0 0 0 44.836 16.06a22.64 22.64 0 0 0-18.932 19.292c-.76 6.2 1 15.084 6.6 18.728a1.212 1.212 0 0 0 1.36-2c-4.52-3.16-5.64-11.008-4.72-16.288a18.967 18.967 0 0 1 35.534-5.11 18.97 18.97 0 0 1 .886 15.23c-4 9.968-16.408 13.448-25.292 10.688a1.36 1.36 0 0 0-.84 2.44"/><path d="M94.576 23.264c-.52-4.4-.28-13.084-3.68-15.488-7.648-5.44-24.256-3.96-35.256-4.36-14.048-.48-28.576.64-42.5 1a1.36 1.36 0 1 0 0 2.68c13.884-.2 28.252-1.04 42.34-.32 9.92.52 26.692-.52 33.052 4 1.52 1.16 1.56 9.768 1.88 12.808A140 140 0 0 1 90.692 56a47.8 47.8 0 0 1-1.76 10.564c-9.8 5.12-78.996 8.724-83.04 2.24A69.2 69.2 0 0 1 3.332 52.2a240 240 0 0 1 2.4-43.384 1.245 1.245 0 0 0-1.76-1.76c-1.56 1.56-1.24 6.564-1.52 8.284a176 176 0 0 0-2.08 40.74 59.5 59.5 0 0 0 2.44 14.728c3.36 5.64 25.252 5.84 32.016 5.88a17.2 17.2 0 0 0-3.56 12.008c-3.08 0-5.964.4-8.644.64a1.2 1.2 0 1 0 0 2.36c8 .28 14.164 1.08 24.012 1 9.84-.08 16.284-.92 24.288-1.52a1.36 1.36 0 0 0 0-2.68h-7.36a35.2 35.2 0 0 0-4.004-12.608c5.28-.4 30.212-2.12 33.176-6.52a34.8 34.8 0 0 0 2.56-12.648 136 136 0 0 0-.72-33.456M60.48 88.496c-10.964-.24-16.768-.36-26.212 0 .64-1.56 1.56-3.6 2.04-5.16q.867-3.255 1.2-6.608c0-.52-.96.44 18.732-.76a27.2 27.2 0 0 0 4.24 12.528"/><path d="M55.52 34.548a6.89 6.89 0 0 0-8.004-8c-6.964.92-8.284 9.76-4 9.24a1.165 1.165 0 0 0 .48-2.28 2.12 2.12 0 0 1 .72-1.68 4 4 0 0 1 5.84 0c1.48 1.6 0 3.56-1.8 5.84-.56.68-2.96 2.684-2.76 4.204.28 2.48 4 2.08 3.56 0 .72-.44 1.48-1.72 1.76-1.96a14 14 0 0 0 4.2-5.36m-7.764 10.964c-3.48-.28-4.84 6.4.28 6.04.84 0 2.12-.32 2.64-1.44a2.88 2.88 0 0 0 .2-2.4 4 4 0 0 0-3.12-2.2"/></g><defs><clipPath id="a"><path fill="#fff" d="M0 0h96v96H0z"/></clipPath></defs></svg>
